packages/sources/assets/src/assets/flag-hk.svg

<svg width="28" height="20" viewBox="0 0 28 20" fill="none" xmlns="http://www.w3.org/2000/svg">
<rect width="28" height="20" rx="2" fill="white"/>
<mask id="mask0_503_2814" style="mask-type:alpha" maskUnits="userSpaceOnUse" x="0" y="0" width="28" height="20">
<rect width="28" height="20" rx="2" fill="white"/>
</mask>
<g mask="url(#mask0_503_2814)">
<path fill-rule="evenodd" clip-rule="evenodd" d="M0 20H28V0H0V20Z" fill="#F0371D"/>
<path fill-rule="evenodd" clip-rule="evenodd" d="M13.984 8.14571C14.9468 7.33983 15.0054 7.15961 15.2361 6.44961C15.3131 6.21263 15.2588 6.01798 15.1946 5.78812C15.1022 5.45666 14.9892 5.05197 15.2201 4.34149C14.1696 4.00016 12.949 4.85893 12.4939 6.2596C12.0388 7.66028 12.5215 9.07246 13.572 9.41379C13.7601 9.47489 13.739 9.43071 13.6819 9.31108C13.5817 9.10119 13.3707 8.65903 13.984 8.14571ZM11.9901 9.61761C11.5212 8.45288 11.3679 8.3415 10.764 7.9027C10.5624 7.75623 10.3605 7.74774 10.122 7.7377C9.77822 7.72324 9.35844 7.70557 8.75407 7.26647C8.10482 8.16009 8.54439 9.58627 9.73587 10.4519C10.9274 11.3176 12.4196 11.2949 13.0688 10.4013C13.1851 10.2414 13.1365 10.2477 13.0051 10.2651C12.7745 10.2955 12.2888 10.3595 11.9901 9.61761ZM18 10.2538C17.2535 10.2538 17.064 10.2538 16 9.58717C15.3223 9.16253 14.967 9.49983 14.7983 9.65995C14.7022 9.75121 14.6667 9.78491 14.6667 9.58717C14.6667 8.4826 15.8606 7.58717 17.3334 7.58717C18.8061 7.58717 20 8.4826 20 9.58717C19.253 9.58717 18.903 9.81962 18.6163 10.01C18.4175 10.142 18.2492 10.2538 18 10.2538ZM18 9C18 9.18409 17.8508 9.33333 17.6667 9.33333C17.4826 9.33333 17.3334 9.18409 17.3334 9C17.3334 8.8159 17.4826 8.66666 17.6667 8.66666C17.8508 8.66666 18 8.8159 18 9ZM15.2521 11.9499C14.9468 13.1678 15.0054 13.3481 15.2361 14.0581C15.3131 14.295 15.4714 14.4206 15.6584 14.5689C15.9281 14.7826 16.2573 15.0437 16.4882 15.7542C17.5387 15.4128 18.0213 14.0007 17.5662 12.6C17.1111 11.1993 15.8906 10.3405 14.8401 10.6819C14.652 10.743 14.695 10.7663 14.8115 10.8295C15.0159 10.9405 15.4465 11.1742 15.2521 11.9499ZM16.4286 13.6706C16.2535 13.7275 16.0654 13.6317 16.0085 13.4566C15.9517 13.2815 16.0475 13.0935 16.2226 13.0366C16.3976 12.9797 16.5857 13.0755 16.6426 13.2506C16.6995 13.4257 16.6037 13.6137 16.4286 13.6706ZM12.7738 11.9688C11.5212 12.0548 11.3679 12.1662 10.764 12.605C10.5624 12.7514 10.4919 12.9408 10.4087 13.1645C10.2887 13.487 10.1422 13.8808 9.53778 14.3199C10.187 15.2135 11.6792 15.2362 12.8707 14.3705C14.0622 13.5048 14.5018 12.0787 13.8525 11.185C13.7363 11.0251 13.7274 11.0732 13.7033 11.2035C13.6609 11.4322 13.5717 11.9139 12.7738 11.9688ZM11.5009 13.6194C11.3927 13.4704 11.4258 13.262 11.5747 13.1538C11.7236 13.0455 11.9321 13.0786 12.0403 13.2275C12.1485 13.3764 12.1155 13.5849 11.9665 13.6931C11.8176 13.8013 11.6092 13.7683 11.5009 13.6194ZM10.027 8.91707C10.1352 8.76814 10.3436 8.73512 10.4926 8.84333C10.6415 8.95154 10.6745 9.16 10.5663 9.30893C10.4581 9.45787 10.2496 9.49088 10.1007 9.38268C9.95178 9.27447 9.91876 9.06601 10.027 8.91707ZM14.0436 6.06215C14.2187 6.11904 14.3145 6.30709 14.2576 6.48218C14.2007 6.65726 14.0127 6.75308 13.8376 6.69619C13.6625 6.6393 13.5667 6.45125 13.6236 6.27617C13.6805 6.10108 13.8685 6.00526 14.0436 6.06215Z" fill="white"/>
</g>
</svg>

<svg width="28" height="20" fill="none" xmlns="http://www.w3.org/2000/svg"><rect width="28" height="20" rx="2" fill="#fff"/><mask id="a" style="mask-type:alpha" maskUnits="userSpaceOnUse" x="0" y="0" width="28" height="20"><rect width="28" height="20" rx="2" fill="#fff"/></mask><g mask="url(#a)" fill-rule="evenodd" clip-rule="evenodd"><path d="M0 20h28V0H0v20Z" fill="#F0371D"/><path d="M13.984 8.146c.963-.806 1.021-.986 1.252-1.696.077-.237.023-.432-.041-.662-.093-.331-.206-.736.025-1.447-1.05-.34-2.271.518-2.726 1.919-.455 1.4.027 2.812 1.078 3.154.188.06.167.017.11-.103-.1-.21-.311-.652.302-1.165ZM11.99 9.618c-.469-1.165-.622-1.277-1.226-1.715-.202-.147-.403-.155-.642-.165-.344-.015-.764-.032-1.368-.472-.65.894-.21 2.32.982 3.186 1.191.866 2.684.843 3.333-.05.116-.16.067-.154-.064-.137-.23.03-.716.095-1.015-.647Zm6.01.636c-.747 0-.936 0-2-.667-.678-.424-1.033-.087-1.202.073-.096.091-.131.125-.131-.073 0-1.104 1.194-2 2.666-2 1.473 0 2.667.896 2.667 2-.747 0-1.097.233-1.384.423-.198.132-.367.244-.616.244ZM18 9a.333.333 0 1 1-.667 0A.333.333 0 0 1 18 9Zm-2.748 2.95c-.305 1.218-.247 1.398-.016 2.108.077.237.235.363.422.51.27.215.6.476.83 1.186 1.05-.341 1.533-1.753 1.078-3.154-.455-1.4-1.675-2.26-2.726-1.918-.188.061-.145.084-.028.147.204.111.635.345.44 1.12Zm1.177 1.72a.333.333 0 1 1-.206-.634.333.333 0 0 1 .206.635Zm-3.655-1.701c-1.253.086-1.406.197-2.01.636-.202.146-.272.336-.355.56-.12.322-.267.716-.871 1.155.649.893 2.141.916 3.333.05 1.191-.865 1.63-2.291.981-3.185-.116-.16-.125-.112-.149.018-.042.23-.131.71-.93.766Zm-1.273 1.65a.333.333 0 1 1 .54-.391.333.333 0 0 1-.54.391Zm-1.474-4.702a.333.333 0 1 1 .54.392.333.333 0 0 1-.54-.392Zm4.017-2.855a.333.333 0 1 1-.206.634.333.333 0 0 1 .206-.634Z" fill="#fff"/></g></svg>
